brandFactory_export/1.Light/Indicativos y marcaciones_1Light.svg

<?xml version="1.0" encoding="UTF-8"?>
<svg width="24px" height="24px" viewBox="0 0 24 24" version="1.1" xmlns="http://www.w3.org/2000/svg" xmlns:xlink="http://www.w3.org/1999/xlink">
    <title>1.Light/Indicativos y marcaciones_1Light</title>
    <g id="Symbols" stroke="none" stroke-width="1" fill="none" fill-rule="evenodd">
        <g id="1.Light/Indicativos-y-marcaciones_1Light" fill="#5CB615" fill-rule="nonzero">
            <path d="M12.3159664,3.93613445 C13.4352941,3.93613445 14.1008403,4.60504202 14.1008403,5.72773109 L14.1008403,9.75462185 C14.3697479,9.57983193 14.712605,9.48571429 15.1159664,9.48571429 C16.1042017,9.48571429 16.7193277,10.0369748 16.7966387,10.9747899 C17.0655462,10.7966387 17.4117647,10.702521 17.8218487,10.702521 C18.8134454,10.702521 19.4285714,11.2605042 19.502521,12.205042 C19.7714286,12.0268908 20.1176471,11.9327731 20.5243697,11.9327731 C21.5831933,11.9327731 22.2117647,12.5680672 22.2117647,13.6268908 L22.2117647,20.8369748 C22.2117647,21.7042017 21.9731092,22.3865546 21.502521,22.8672269 C21.0319328,23.3478992 20.2823529,23.6134454 19.3983193,23.6134454 L11.6605042,23.6134454 C11.1663866,23.6134454 10.907563,23.2033613 10.6991597,22.7630252 C10.6084034,22.5680672 10.3831933,22.0806723 10.0705882,21.405042 C9.17647059,19.4689076 7.5092437,15.8655462 6.67226891,14.1008403 C6.27226891,13.2605042 6.57142857,12.6084034 6.98487395,12.2823529 C7.52268908,11.8521008 8.32605042,11.8689076 8.89411765,12.3159664 C9.31092437,12.6453782 9.70084034,13.3815126 10.1142857,14.1647059 C10.1815126,14.292437 10.2487395,14.4201681 10.3193277,14.5478992 C10.4067227,14.7092437 10.4773109,14.7865546 10.5210084,14.8268908 C10.5344538,14.7831933 10.5411765,14.7394958 10.5378151,14.692437 L10.5372295,14.4926357 C10.5356678,13.5738801 10.5364487,10.0208715 10.5371427,7.73011463 L10.5378151,5.70756303 C10.6117647,4.56470588 11.2436975,3.93613445 12.3159664,3.93613445 Z M12.3193277,4.60504202 C11.5966387,4.60504202 11.2638655,4.94453782 11.210084,5.73781513 C11.210084,6.08739496 11.2067227,14.1983193 11.210084,14.6890756 C11.210084,15.1092437 11.0084034,15.4319328 10.692437,15.512605 C10.487395,15.5630252 10.0907563,15.5495798 9.72436975,14.8672269 C9.65714286,14.7394958 9.58655462,14.6084034 9.51932773,14.4806723 C9.15630252,13.794958 8.77983193,13.0857143 8.47731092,12.8470588 C8.30588235,12.712605 8.10084034,12.6420168 7.88907563,12.6386555 C7.71092437,12.6352941 7.5394958,12.6957983 7.39831933,12.8067227 C7.12268908,13.0252101 7.07563025,13.394958 7.27731092,13.8117647 C8.11428571,15.5798319 9.78487395,19.1865546 10.6789916,21.1226891 C10.9915966,21.7983193 11.2168067,22.2857143 11.307563,22.4773109 C11.5031322,22.8959511 11.6014723,22.9340093 11.6455158,22.9374691 L19.394958,22.9378151 C20.097479,22.9378151 20.6756303,22.7428571 21.0218487,22.389916 C21.3680672,22.0369748 21.5394958,21.512605 21.5394958,20.8268908 L21.5394958,13.6268908 C21.5394958,12.9378151 21.2067227,12.605042 20.5243697,12.605042 C19.8420168,12.605042 19.5092437,12.9411765 19.5092437,13.6268908 L18.8369748,13.6268908 L18.8369748,12.3966387 C18.8369748,11.707563 18.5042017,11.3747899 17.8218487,11.3747899 C17.1394958,11.3747899 16.8067227,11.7109244 16.8067227,12.3966387 L16.1344538,12.3966387 L16.1344538,11.1798319 C16.1344538,10.4907563 15.8016807,10.1579832 15.1193277,10.1579832 C14.4369748,10.1579832 14.1042017,10.4941176 14.1042017,11.1798319 L13.4319328,11.1798319 L13.4319328,5.72436975 C13.4319328,4.97142857 13.0689076,4.60504202 12.3193277,4.60504202 Z M3.79495798,7.86218487 C4.91092437,7.86218487 5.57983193,8.53109244 5.57983193,9.65378151 C5.57983193,10.2084034 5.42521008,10.6453782 5.11932773,10.9613445 C4.81344538,11.2773109 4.34957983,11.4521008 3.79495798,11.4521008 C3.24033613,11.4521008 2.77983193,11.2840336 2.47058824,10.9647059 C2.16134454,10.6453782 2.01008403,10.2117647 2.01008403,9.65714286 C2.01008403,8.53445378 2.6789916,7.86218487 3.79495798,7.86218487 Z M8.05714286,7.86554622 C9.17310924,7.86554622 9.84201681,8.53445378 9.84201681,9.65714286 C9.84201681,10.2117647 9.68739496,10.6487395 9.3815126,10.9647059 C9.07563025,11.2806723 8.61176471,11.4521008 8.05714286,11.4521008 C7.50252101,11.4521008 7.04537815,11.2840336 6.73277311,10.9647059 C6.42016807,10.6453782 6.27226891,10.2117647 6.27226891,9.65714286 C6.27226891,8.53445378 6.94117647,7.86554622 8.05714286,7.86554622 Z M3.79495798,8.53781513 C3.04537815,8.53781513 2.68235294,8.90420168 2.68235294,9.65714286 C2.68235294,10.0268908 2.77310924,10.3092437 2.9512605,10.4941176 C3.12941176,10.6789916 3.41848739,10.7764706 3.79495798,10.7764706 C4.17142857,10.7764706 4.45378151,10.6823529 4.63865546,10.4941176 C4.82352941,10.3058824 4.90756303,10.0302521 4.90756303,9.65714286 C4.90756303,8.90420168 4.54453782,8.53781513 3.79495798,8.53781513 Z M8.05714286,8.53781513 C7.30756303,8.53781513 6.94453781,8.90420168 6.94453781,9.65714286 C6.94453781,10.0268908 7.03529412,10.3092437 7.21344538,10.4941176 C7.39159664,10.6789916 7.68067227,10.7764706 8.05714286,10.7764706 C8.43361345,10.7764706 8.71596639,10.6823529 8.90084034,10.4941176 C9.08571429,10.3058824 9.1697479,10.0302521 9.1697479,9.65714286 C9.1697479,8.90420168 8.80672269,8.53781513 8.05714286,8.53781513 Z M3.79495798,3.93277311 C4.91092437,3.93277311 5.57983193,4.60168067 5.57983193,5.72436975 C5.57983193,6.2789916 5.42521008,6.71596639 5.11932773,7.03193277 C4.81344538,7.34789916 4.34957983,7.51932773 3.79495798,7.51932773 C3.24033613,7.51932773 2.77983193,7.3512605 2.47058824,7.03193277 C2.16134454,6.71260504 2.01008403,6.2789916 2.01008403,5.72436975 C2.01008403,4.60168067 2.6789916,3.93277311 3.79495798,3.93277311 Z M8.05714286,3.93277311 C9.17310924,3.93277311 9.84201681,4.60168067 9.84201681,5.72436975 C9.84201681,6.2789916 9.68739496,6.71596639 9.3815126,7.03193277 C9.07563025,7.34789916 8.61176471,7.51932773 8.05714286,7.51932773 C7.50252101,7.51932773 7.04537815,7.3512605 6.73277311,7.03193277 C6.42016807,6.71260504 6.27226891,6.2789916 6.27226891,5.72436975 C6.27226891,4.60168067 6.94117647,3.93277311 8.05714286,3.93277311 Z M3.79495798,4.60504202 C3.04537815,4.60504202 2.68235294,4.97142857 2.68235294,5.72436975 C2.68235294,6.09747899 2.77310924,6.37647059 2.9512605,6.56134454 C3.12941176,6.74621849 3.41848739,6.84369748 3.79495798,6.84369748 C4.17142857,6.84369748 4.45378151,6.74957983 4.63865546,6.56134454 C4.82352941,6.37310924 4.90756303,6.09411765 4.90756303,5.72436975 C4.90756303,4.97142857 4.54453781,4.60504202 3.79495798,4.60504202 Z M8.05714286,4.60504202 C7.30756303,4.60504202 6.94453781,4.97142857 6.94453781,5.72436975 C6.94453781,6.09747899 7.03529412,6.37647059 7.21344538,6.56134454 C7.39159664,6.74621849 7.68067227,6.84369748 8.05714286,6.84369748 C8.43361345,6.84369748 8.71596639,6.74957983 8.90084034,6.56134454 C9.08571429,6.37310924 9.1697479,6.09411765 9.1697479,5.72436975 C9.1697479,4.97142857 8.80672269,4.60504202 8.05714286,4.60504202 Z M3.79495798,-4.37871961e-13 C4.91428571,-4.37871961e-13 5.57983193,0.668907563 5.57983193,1.79159664 C5.57983193,2.34621849 5.42521008,2.78319328 5.11932773,3.09915966 C4.81344538,3.41512605 4.34957983,3.58655462 3.79495798,3.58655462 C3.24033613,3.58655462 2.77983193,3.41848739 2.47058824,3.09915966 C2.16134454,2.77983193 2.01008403,2.34621849 2.01008403,1.79159664 C2.01008403,0.668907563 2.67563025,-4.37871961e-13 3.79495798,-4.37871961e-13 Z M8.05714286,-4.37871961e-13 C9.17310924,-4.37871961e-13 9.84201681,0.668907563 9.84201681,1.79159664 C9.84201681,2.34621849 9.68739496,2.78319328 9.3815126,3.09915966 C9.07563025,3.41512605 8.61176471,3.58655462 8.05714286,3.58655462 C7.50252101,3.58655462 7.04537815,3.41848739 6.73277311,3.09915966 C6.42016807,2.77983193 6.27226891,2.34621849 6.27226891,1.79159664 C6.27226891,0.668907563 6.94117647,-4.37871961e-13 8.05714286,-4.37871961e-13 Z M12.3159664,-4.37649916e-13 C13.4352941,-4.37649916e-13 14.1008403,0.668907563 14.1008403,1.79159664 C14.1008403,2.34621849 13.9462185,2.78319328 13.6403361,3.09915966 C13.3344538,3.41512605 12.8705882,3.58655462 12.3159664,3.58655462 C11.7613445,3.58655462 11.3042017,3.41848739 10.9915966,3.09915966 C10.6789916,2.77983193 10.5310924,2.34621849 10.5310924,1.79159664 C10.5310924,0.668907563 11.1966387,-4.37649916e-13 12.3159664,-4.37649916e-13 Z M3.79495798,0.672268908 C3.04537815,0.672268908 2.68235294,1.03865546 2.68235294,1.79159664 C2.68235294,2.16470588 2.77310924,2.44369748 2.9512605,2.62857143 C3.12941176,2.81344538 3.41848739,2.91092437 3.79495798,2.91092437 C4.17142857,2.91092437 4.45378151,2.81680672 4.63865546,2.62857143 C4.82352941,2.44033613 4.90756303,2.16470588 4.90756303,1.79159664 C4.90756303,1.03865546 4.54453781,0.672268908 3.79495798,0.672268908 Z M8.05714286,0.672268908 C7.30756303,0.672268908 6.94453781,1.03865546 6.94453781,1.79159664 C6.94453781,2.16470588 7.03529412,2.44369748 7.21344538,2.62857143 C7.39159664,2.81344538 7.68067227,2.91092437 8.05714286,2.91092437 C8.43361345,2.91092437 8.71596639,2.81680672 8.90084034,2.62857143 C9.08571429,2.44033613 9.1697479,2.16470588 9.1697479,1.79159664 C9.1697479,1.03865546 8.80672269,0.672268908 8.05714286,0.672268908 Z M12.3159664,0.672268908 C11.5663866,0.672268908 11.2033613,1.03865546 11.2033613,1.79159664 C11.2033613,2.16470588 11.2941176,2.44369748 11.4722689,2.62857143 C11.6504202,2.81344538 11.9394958,2.91092437 12.3159664,2.91092437 C12.692437,2.91092437 12.9747899,2.81680672 13.1596639,2.62857143 C13.3445378,2.44033613 13.4285714,2.16470588 13.4285714,1.79159664 C13.4285714,1.03865546 13.0655462,0.672268908 12.3159664,0.672268908 Z" id="Indicativos-y-marcaciones_1Light"></path>
        </g>
    </g>
</svg>

<svg width="24" height="24" viewBox="0 0 24 24" xmlns="http://www.w3.org/2000/svg"><path d="M12.316 3.936c1.12 0 1.785.669 1.785 1.792v4.027c.269-.175.612-.27 1.015-.27.988 0 1.603.552 1.68 1.49.27-.178.616-.272 1.026-.272.991 0 1.607.558 1.68 1.502.27-.178.616-.272 1.022-.272 1.06 0 1.688.635 1.688 1.694v7.21c0 .867-.239 1.55-.71 2.03-.47.48-1.22.746-2.104.746h-7.737c-.495 0-.753-.41-.962-.85l-.628-1.358c-.895-1.936-2.562-5.54-3.399-7.304-.4-.84-.1-1.493.313-1.819.538-.43 1.341-.413 1.91.034.416.33.806 1.066 1.22 1.849.067.127.134.255.204.383.088.161.158.239.202.279a.361.361 0 00.017-.135v-.2c-.002-.918-.002-4.471 0-6.762V5.708c.074-1.143.706-1.772 1.778-1.772zm.003.669c-.722 0-1.055.34-1.109 1.133 0 .35-.003 8.46 0 8.951 0 .42-.202.743-.518.824-.205.05-.601.037-.968-.646l-.205-.386c-.363-.686-.74-1.395-1.042-1.634a.973.973 0 00-.588-.208.77.77 0 00-.49.168c-.276.218-.323.588-.122 1.005a1134.96 1134.96 0 013.402 7.31c.313.676.538 1.164.629 1.355.195.419.293.457.338.46h7.749c.702 0 1.28-.194 1.627-.547.346-.353.517-.877.517-1.563v-7.2c0-.69-.332-1.022-1.015-1.022-.682 0-1.015.336-1.015 1.022h-.672v-1.23c0-.69-.333-1.022-1.015-1.022-.683 0-1.015.336-1.015 1.022h-.673V11.18c0-.69-.332-1.022-1.015-1.022-.682 0-1.015.336-1.015 1.022h-.672V5.724c0-.753-.363-1.119-1.113-1.119zM3.795 7.862c1.116 0 1.785.67 1.785 1.792 0 .554-.155.991-.46 1.307-.307.316-.77.491-1.325.491-.555 0-1.015-.168-1.324-.487-.31-.32-.46-.753-.46-1.308 0-1.123.668-1.795 1.784-1.795zm4.262.004c1.116 0 1.785.668 1.785 1.791 0 .555-.155.992-.46 1.308-.306.316-.77.487-1.325.487-.554 0-1.012-.168-1.324-.487-.313-.32-.46-.753-.46-1.308 0-1.123.668-1.791 1.784-1.791zm-4.262.672c-.75 0-1.113.366-1.113 1.12 0 .369.091.651.27.836.177.185.466.282.843.282.376 0 .659-.094.844-.282.185-.188.269-.464.269-.837 0-.753-.363-1.12-1.113-1.12zm4.262 0c-.75 0-1.112.366-1.112 1.12 0 .369.09.651.268.836.179.185.468.282.844.282.377 0 .659-.094.844-.282.185-.188.269-.464.269-.837 0-.753-.363-1.12-1.113-1.12zM3.795 3.933c1.116 0 1.785.669 1.785 1.791 0 .555-.155.992-.46 1.308-.307.316-.77.487-1.325.487-.555 0-1.015-.168-1.324-.487-.31-.32-.46-.753-.46-1.308 0-1.122.668-1.791 1.784-1.791zm4.262 0c1.116 0 1.785.669 1.785 1.791 0 .555-.155.992-.46 1.308-.306.316-.77.487-1.325.487-.554 0-1.012-.168-1.324-.487-.313-.32-.46-.753-.46-1.308 0-1.122.668-1.791 1.784-1.791zm-4.262.672c-.75 0-1.113.366-1.113 1.12 0 .372.091.651.27.836.177.185.466.283.843.283.376 0 .659-.094.844-.283.185-.188.269-.467.269-.837 0-.753-.363-1.119-1.113-1.119zm4.262 0c-.75 0-1.112.366-1.112 1.12 0 .372.09.651.268.836.179.185.468.283.844.283.377 0 .659-.094.844-.283.185-.188.269-.467.269-.837 0-.753-.363-1.119-1.113-1.119zM3.795 0C4.915 0 5.58.669 5.58 1.792c0 .554-.155.991-.46 1.307-.307.316-.77.488-1.325.488-.555 0-1.015-.169-1.324-.488-.31-.32-.46-.753-.46-1.307C2.01.669 2.675 0 3.794 0zm4.262 0c1.116 0 1.785.669 1.785 1.792 0 .554-.155.991-.46 1.307-.306.316-.77.488-1.325.488-.554 0-1.012-.169-1.324-.488-.313-.32-.46-.753-.46-1.307C6.272.669 6.94 0 8.056 0zm4.259 0c1.12 0 1.785.669 1.785 1.792 0 .554-.155.991-.46 1.307-.307.316-.77.488-1.325.488-.555 0-1.012-.169-1.324-.488-.313-.32-.46-.753-.46-1.307C10.531.669 11.196 0 12.315 0zM3.795.672c-.75 0-1.113.367-1.113 1.12 0 .373.091.652.27.837.177.184.466.282.843.282.376 0 .659-.094.844-.282.185-.189.269-.464.269-.837 0-.753-.363-1.12-1.113-1.12zm4.262 0c-.75 0-1.112.367-1.112 1.12 0 .373.09.652.268.837.179.184.468.282.844.282.377 0 .659-.094.844-.282.185-.189.269-.464.269-.837 0-.753-.363-1.12-1.113-1.12zm4.259 0c-.75 0-1.113.367-1.113 1.12 0 .373.091.652.27.837.177.184.466.282.843.282.376 0 .659-.094.844-.282.185-.189.269-.464.269-.837 0-.753-.363-1.12-1.113-1.12z" fill="#5CB615" fill-rule="nonzero"/></svg>
